X:1
T:Bruce, 75.75
T:Bruce, 75.75
T:Anonymous, before 1908
T:Public Domain Courtesy of the Cyber Hymnal™
C:Anonymous, before 1908
Z:Public Domain
Z:Courtesy of the Cyber Hymnal™
%%score ( 1 2 ) ( 3 4 )
L:1/8
Q:1/4=115
M:4/4
K:G
V:1 treble 
V:2 treble 
V:3 bass 
V:4 bass 
V:1
 D2 [DB]2 [GB]2 [Gd]2 | [Fd]2 [Fc]2 [Fc]4 | D2 [DF]2 [FA]2 [Dc]2 | [DB]8 | D2 [DB]2 [DB]2 [=Fd]2 | %5
 [Ed]2 [Ec]2 [CE]4 | [B,D]2 [DB]2 [CB]2 [CA]2 | [B,G]8 |] %8
V:2
 D2 x6 | x8 | D2 x6 | x8 | D2 x6 | x8 | x8 | x8 |] %8
V:3
 [G,B,]2 [G,D]2 [G,D]2 [G,B,]2 | A,2 [A,D]2 [A,D]4 | [F,A,]2 [D,A,]2 [D,C]2 [F,A,]2 | [G,D]8 | %4
 [G,B,]2 G,2 G,2 [B,,G,]2 | [C,G,]2 [C,G,]2 [C,G,]4 | [D,G,]2 D,2 [D,E,]2 [D,F,]2 | [G,,G,]8 |] %8
V:4
 x8 | A,2 x6 | x8 | x8 | x2 G,2 G,2 x2 | x8 | x2 D,2 x4 | x8 |] %8

